X:36
T:Donnacha's Favourite (O'Brien Reel)
R:reel
C:Paddy O'Brien
O:Ireland
S:http://www.cranfordpub.com
D:Some Tasty Tunes, 1999; Pure Celtic Hearts, Maybelle Chisholm
B:The Compositions of Paddy O'Brien
Z:psc, (re-formatted,updated 9/19/04)
N:http://www.cranfordpub.com/stubbert
H:                                                        copyrights Eileen O'Brien
L:1/8
Q:333
M:C|
K:Ador
d|e2 dB ABcd|eaag ef g2|dG G/G/G EGDG|B2 AB GABd|
e2 dB ABcd|eaag efgf|efed eaaf|gedg BAA:|
|:d|eaag e2 dB|cdef g2 fe|dG G/G/G EGDG|B2 AB GABd|
eaag e2 dB|cdef g2 fg|efed eaaf|gedg BAA:|
